X: 1
P:The Haughs of Cromdale
C:from George Thomson 8-2001
C:arr. Terry Traub 10-31-2002
M:4/4
L:1/4
K:A
a|"Am"e A A B/<d/|"Am"e>d B d|"Am"e A A B/>A/|"G"G>A B d|\
  "Am"e A A B/<d/|"Am"e>d B d|"G"e d g B|"Am"B A A :|
a|"Am"e2 e>f|"C"g a g e|"G"d e d B|"G"d>e d B|"Am"e2 e>f|\
  "C"g a g e|"G"d B g B |"Am"B A A a||
"Am"e2 e>f|"C"g a g e|"G"d e d B|"G"d>e f d|"Am"e2 e>f|\
  "C"g a g e|"G"d B g B |"Am"B A A |]
